X: 1
T:Michael Cramer's
T:Tinker's Daughter, The
R:reel
D:Conal O'Grada: The Top of Coom
Z:id:hn-reel-291
M:C|
K:D
~A3B AF~F2|AFAd f2fg|afef dB~B2|dBAF FEDF|
~A3B AF~F2|AFAd f2fg|afef d2dB|1 Adfe d2dB:|2 Adfe d2de||
|:fded BAFA|dcdf a2af|g2fg eB~B2|dBAF FEDF|
~A3B AF~F2|AFAd f2fg|afef d2dB|1 Adfe d2de:|2 Adfe d2dB||
